artwork/resources/intui/icons/shell/tool-windows/android-profiler@20x20.svg

<svg width="20" height="20" viewBox="0 0 20 20" fill="none" xmlns="http://www.w3.org/2000/svg">
<g clip-path="url(#clip0_3754_1937)">
<g clip-path="url(#clip1_3754_1937)">
<path fill-rule="evenodd" clip-rule="evenodd" d="M10 4C5.58172 4 2 7.58172 2 12C2 13.1896 2.25763 14.4539 2.69917 15.5H17.3008C17.7424 14.4539 18 13.1896 18 12C18 7.58172 14.4183 4 10 4ZM0.5 12C0.5 6.75329 4.75329 2.5 10 2.5C15.2467 2.5 19.5 6.75329 19.5 12C19.5 13.6282 19.0904 15.3821 18.3686 16.7477C18.2852 16.9055 18.1192 17 17.9407 17H2.05933C1.88084 17 1.71482 16.9055 1.63141 16.7477C0.909613 15.3821 0.5 13.6282 0.5 12Z" fill="#6C707E"/>
<path fill-rule="evenodd" clip-rule="evenodd" d="M14.8711 8.62269C15.2323 8.3228 15.282 7.78691 14.9821 7.42574C14.6822 7.06457 14.1463 7.01489 13.7851 7.31478L10.9993 9.62788C10.6971 9.48187 10.3581 9.40002 10 9.40002C8.72976 9.40002 7.70001 10.4298 7.70001 11.7C7.70001 12.9703 8.72976 14 10 14C11.2703 14 12.3 12.9703 12.3 11.7C12.3 11.4119 12.247 11.1361 12.1502 10.8819L14.8711 8.62269ZM10.8 11.7C10.8 12.1419 10.4418 12.5 10 12.5C9.55818 12.5 9.20001 12.1419 9.20001 11.7C9.20001 11.2582 9.55818 10.9 10 10.9C10.4418 10.9 10.8 11.2582 10.8 11.7Z" fill="#6C707E"/>
</g>
</g>
<defs>
<clipPath id="clip0_3754_1937">
<rect width="20" height="20" fill="white"/>
</clipPath>
<clipPath id="clip1_3754_1937">
<rect width="20" height="20" fill="white"/>
</clipPath>
</defs>
</svg>

<svg width="20" height="20" viewBox="0 0 20 20" fill="none" xmlns="http://www.w3.org/2000/svg"><g clip-path="url(#clip0_3754_1937)"><g clip-path="url(#clip1_3754_1937)" fill-rule="evenodd" clip-rule="evenodd" fill="#6C707E"><path d="M10 4a8 8 0 0 0-8 8c0 1.19.258 2.454.7 3.5h14.6c.442-1.046.7-2.31.7-3.5a8 8 0 0 0-8-8zM.5 12a9.5 9.5 0 1 1 19 0c0 1.628-.41 3.382-1.131 4.748a.481.481 0 0 1-.428.252H2.059a.481.481 0 0 1-.428-.252C.91 15.382.5 13.628.5 12z"/><path d="M14.871 8.623a.85.85 0 1 0-1.086-1.308L11 9.628a2.3 2.3 0 1 0 1.15 1.254l2.722-2.26zM10.8 11.7a.8.8 0 1 1-1.6 0 .8.8 0 0 1 1.6 0z"/></g></g><defs><clipPath id="clip0_3754_1937"><path fill="#fff" d="M0 0h20v20H0z"/></clipPath><clipPath id="clip1_3754_1937"><path fill="#fff" d="M0 0h20v20H0z"/></clipPath></defs></svg>
